src/img/humidity.svg

<svg width="11" height="13" viewBox="0 0 11 13" fill="none" xmlns="http://www.w3.org/2000/svg">
<g clip-path="url(#clip0_48_137)">
<path d="M0.625196 7.9551C0.625196 7.36368 0.786934 6.68546 1.11149 5.91939C1.43712 5.15225 1.85548 4.40653 2.36981 3.69403C3.42542 2.30975 4.34517 1.26189 5.11612 0.554747L5.6229 0.0715332C5.79218 0.246176 5.98196 0.407962 6.18467 0.555819C6.46178 0.837605 6.88769 1.30153 7.45701 1.95939C8.02417 2.61832 8.51801 3.20332 8.92343 3.74118C9.40433 4.42046 9.8173 5.15225 10.1483 5.92582C10.4793 6.69832 10.6486 7.3776 10.6486 7.96153C10.6486 8.63439 10.5203 9.27296 10.2562 9.88368C10.008 10.4749 9.64779 11.0132 9.19515 11.4694C8.74875 11.914 8.21394 12.2697 7.59179 12.5322C6.96929 12.7955 6.29944 12.9304 5.6229 12.9287C4.95879 12.9305 4.30105 12.8001 3.68851 12.5451C3.09284 12.3056 2.55055 11.9517 2.0927 11.5037C1.6363 11.0515 1.27331 10.515 1.02415 9.92439C0.757257 9.30191 0.621484 8.63171 0.625196 7.9551ZM2.15308 5.98582C2.15308 6.54296 2.26845 6.9876 2.50567 7.32296C2.74289 7.65296 3.10086 7.82118 3.58069 7.82118C4.06806 7.82118 4.42604 7.65296 4.66972 7.32296C4.90694 6.99403 5.0277 6.55046 5.03525 5.98582C5.0277 5.42118 4.90586 4.97868 4.66972 4.64225C4.43251 4.31225 4.06806 4.14403 3.58069 4.14403C3.10086 4.14403 2.74181 4.31225 2.50567 4.64225C2.26845 4.9776 2.15308 5.42118 2.15308 5.98582ZM3.21516 5.98582V5.7501C3.21516 5.69653 3.22271 5.6226 3.22918 5.52939C3.22977 5.45638 3.24103 5.38383 3.2626 5.31403C3.28309 5.26689 3.29711 5.20689 3.32406 5.15332C3.35102 5.09975 3.38445 5.05153 3.42542 5.03118C3.47253 5.00405 3.52625 4.99033 3.58069 4.99153C3.62142 4.98925 3.66221 4.99519 3.70057 5.009C3.73893 5.02281 3.77408 5.0442 3.80389 5.07189C3.8578 5.12546 3.89877 5.21332 3.91926 5.32689C3.93975 5.44796 3.95268 5.54225 3.95915 5.6301C3.9667 5.71689 3.9667 5.83153 3.9667 5.97939C3.9667 6.13368 3.9667 6.24725 3.95915 6.32868C3.94987 6.42987 3.93656 6.53067 3.91926 6.63082C3.90758 6.72576 3.86738 6.815 3.80389 6.88689C3.77408 6.91458 3.73893 6.93597 3.70057 6.94978C3.66221 6.96359 3.62142 6.96953 3.58069 6.96725C3.52615 6.96812 3.47242 6.95404 3.42542 6.92653C3.37806 6.89963 3.34207 6.85663 3.32406 6.80546C3.26736 6.68808 3.23509 6.56053 3.22918 6.43046C3.22271 6.3351 3.21516 6.26118 3.21516 6.21403V5.98582ZM3.61411 11.1951H4.50691L7.88184 3.97689H6.96964L3.61411 11.1951ZM6.52324 9.1851C6.52971 9.74975 6.65802 10.1922 6.89524 10.5297C7.13245 10.8587 7.4969 11.0269 7.97672 11.0269C8.4641 11.0269 8.82315 10.8587 9.05929 10.5297C9.29651 10.1997 9.4108 9.74975 9.41835 9.1851C9.4108 8.62046 9.29651 8.17796 9.05929 7.84796C8.82207 7.51796 8.4641 7.35082 7.97672 7.35082C7.4969 7.35082 7.13137 7.51796 6.89524 7.84796C6.65155 8.17689 6.52971 8.62046 6.52324 9.1851ZM7.58532 9.1851C7.58532 9.03082 7.58532 8.91725 7.59179 8.83582C7.60143 8.73461 7.6151 8.63381 7.63276 8.53368C7.64269 8.43847 7.6827 8.34883 7.74706 8.27761C7.77687 8.24992 7.81201 8.22852 7.85037 8.21471C7.88874 8.2009 7.92952 8.19496 7.97025 8.19725C8.03171 8.19725 8.08563 8.2101 8.13199 8.23796C8.18158 8.26722 8.21991 8.31209 8.2409 8.36546C8.26785 8.42546 8.28834 8.47903 8.30883 8.52618C8.3304 8.59597 8.34166 8.66852 8.34225 8.74153L8.34872 8.95582V9.42082L8.34225 9.6351L8.30883 9.85046L8.2409 10.0112L8.13307 10.1397L7.97133 10.1794C7.93042 10.1818 7.88943 10.176 7.85087 10.1621C7.81232 10.1483 7.77699 10.1269 7.74706 10.099C7.68415 10.0273 7.64434 9.93848 7.63276 9.84403C7.61506 9.74354 7.60139 9.64239 7.59179 9.54082C7.58532 9.46046 7.58532 9.33939 7.58532 9.1851Z" fill="white"/>
</g>
<defs>
<clipPath id="clip0_48_137">
<rect width="11" height="13" fill="white"/>
</clipPath>
</defs>
</svg>

<svg xmlns="http://www.w3.org/2000/svg" width="11" height="13" fill="none"><g clip-path="url(#a)"><path fill="#fff" d="M.625 7.955q0-.887.486-2.036A11.4 11.4 0 0 1 2.37 3.694C3.425 2.31 4.345 1.262 5.116.554l.507-.482q.256.262.562.484c.277.282.703.746 1.272 1.403a37 37 0 0 1 1.466 1.782c.481.68.894 1.411 1.225 2.185q.498 1.159.5 2.036.002 1.007-.392 1.922a5 5 0 0 1-1.06 1.585q-.67.668-1.604 1.063a5 5 0 0 1-1.97.397 5 5 0 0 1-1.933-.384 4.9 4.9 0 0 1-1.596-1.041 4.9 4.9 0 0 1-1.069-1.58 4.9 4.9 0 0 1-.399-1.969m1.528-1.97q-.002.836.353 1.338.355.497 1.075.498c.487 0 .845-.168 1.089-.498q.355-.492.365-1.337c-.007-.565-.13-1.007-.365-1.344q-.357-.497-1.09-.498-.72.001-1.074.498c-.238.336-.353.78-.353 1.344m1.062 0V5.75c0-.053.008-.127.014-.22a.8.8 0 0 1 .034-.216c.02-.047.034-.107.061-.16s.06-.102.101-.123q.073-.04.156-.04a.3.3 0 0 1 .223.08.5.5 0 0 1 .115.256c.02.121.034.215.04.303.008.087.008.202.008.35 0 .154 0 .267-.008.349a4 4 0 0 1-.04.302.47.47 0 0 1-.115.256.3.3 0 0 1-.223.08.3.3 0 0 1-.156-.04.23.23 0 0 1-.1-.122 1 1 0 0 1-.096-.375c-.006-.095-.014-.169-.014-.216zm.4 5.21h.892l3.375-7.218H6.97zm2.908-2.01c.007.565.135 1.007.372 1.345.237.329.602.497 1.082.497q.73-.002 1.082-.497c.238-.33.352-.78.36-1.345-.008-.565-.122-1.007-.36-1.337-.237-.33-.595-.497-1.082-.497-.48 0-.846.167-1.082.497q-.363.491-.372 1.337m1.062 0q-.002-.229.007-.35a4 4 0 0 1 .04-.301.45.45 0 0 1 .115-.256.3.3 0 0 1 .223-.08q.093-.001.162.04.076.046.109.127l.068.161a.8.8 0 0 1 .033.216l.007.214v.465l-.007.214-.033.215-.068.161-.108.129-.162.04a.3.3 0 0 1-.224-.081.47.47 0 0 1-.114-.255 4 4 0 0 1-.041-.303c-.007-.08-.007-.202-.007-.356"/></g><defs><clipPath id="a"><path fill="#fff" d="M0 0h11v13H0z"/></clipPath></defs></svg>
